dist/intermediate-svg/sources-traffic.svg

<?xml version="1.0" encoding="utf-8"?><svg width="24" height="23.04" fill="none" xmlns="http://www.w3.org/2000/svg" viewBox="0 0 25 24"><path d="M6.51001 10.1937V5.00012C6.51001 4.44784 6.95773 4.00012 7.51001 4.00012H17.51C18.0623 4.00012 18.51 4.44784 18.51 5.00012V19.0001C18.51 19.5524 18.0623 20.0001 17.51 20.0001H7.51001C6.95772 20.0001 6.51001 19.5524 6.51001 19.0001V14.0001" stroke="#333"/><path d="M2.51001 12.0001H14.51M12.51 10.0001L14.51 12.0001 12.51 14.0001" stroke="#0094FF"/></svg>

<?xml version="1.0" encoding="utf-8"?><svg width="24" height="23.04" fill="none" xmlns="http://www.w3.org/2000/svg" viewBox="0 0 25 24"><path d="M6.51 10.194V5a1 1 0 011-1h10a1 1 0 011 1v14a1 1 0 01-1 1h-10a1 1 0 01-1-1v-5" stroke="#333"/><path d="M2.51 12h12M12.51 10l2 2-2 2" stroke="#0094FF"/></svg>
